X: 4
T: Miss Susan Cooper
R: reel
M: 4/4
L: 1/8
K: Dmaj
ABc|:dfed BedB|BAFA DAFA|ABde fa^ga|g2fg egfe|
dfed B2dB|A2FA DAFA|ABde fagf|eAce d2dc:|
|:(3Bcd de fB B2|def^g a2gf|e2ce Aece|g2fg egfe|
dfed B2dB|BAFA DAFA|ABde fagf|1 eAce d2dc:|2 eAce dABc||


Tune 1018	Setting 14239

